src/img/article/сustom_checkboxes_and_radio_buttons/input-checked.svg

<?xml version="1.0" encoding="utf-8"?>

<!-- Uploaded to: SVG Repo, www.svgrepo.com, Generator: SVG Repo Mixer Tools -->
<svg width="800px" height="800px" viewBox="0 0 24 24" fill="none" xmlns="http://www.w3.org/2000/svg">
<g id="Interface / Checkbox_Check">
<path id="Vector" d="M8 12L11 15L16 9M4 16.8002V7.2002C4 6.08009 4 5.51962 4.21799 5.0918C4.40973 4.71547 4.71547 4.40973 5.0918 4.21799C5.51962 4 6.08009 4 7.2002 4H16.8002C17.9203 4 18.4796 4 18.9074 4.21799C19.2837 4.40973 19.5905 4.71547 19.7822 5.0918C20 5.5192 20 6.07899 20 7.19691V16.8036C20 17.9215 20 18.4805 19.7822 18.9079C19.5905 19.2842 19.2837 19.5905 18.9074 19.7822C18.48 20 17.921 20 16.8031 20H7.19691C6.07899 20 5.5192 20 5.0918 19.7822C4.71547 19.5905 4.40973 19.2842 4.21799 18.9079C4 18.4801 4 17.9203 4 16.8002Z" stroke="#2D3440" stroke-width="2" stroke-linecap="round" stroke-linejoin="round"/>
</g>
</svg>

<svg xmlns="http://www.w3.org/2000/svg" width="800" height="800" fill="none" viewBox="0 0 24 24"><path stroke="#2D3440" stroke-linecap="round" stroke-linejoin="round" stroke-width="2" d="m8 12 3 3 5-6M4 16.8V7.2c0-1.1 0-1.7.2-2.1.2-.4.5-.7.9-.9C5.5 4 6 4 7.2 4h9.6c1.1 0 1.7 0 2.1.2.4.2.7.5.9.9.2.4.2 1 .2 2.1v9.6c0 1.1 0 1.7-.2 2.1a2 2 0 0 1-.9.9c-.4.2-1 .2-2.1.2H7.2c-1.1 0-1.7 0-2.1-.2a2 2 0 0 1-.9-.9c-.2-.4-.2-1-.2-2.1Z"/></svg>
